src/assets/NewButton.svg

<svg xmlns="http://www.w3.org/2000/svg" viewBox="0 -0.5 34 19" shape-rendering="crispEdges">
  <path stroke="#525252" d="M2 0h30M1 1h1m30 0h1M4 2h1m2 0h10m5 0h4m1 0h2m4 0h1M3 3h1m26 0h1m2 0h1M2 4h1m30 0h1m-3 1h1m1 0h1m-3 1h1m1 0h1m-3 1h1m1 0h1m-3 1h1m1 0h1m-3 1h1m1 0h1M2 10h1m28 0h1m1 0h1M2 11h1m28 0h1m1 0h1m-3 1h1m1 0h1M2 13h1m30 0h1M3 14h1m26 0h1m2 0h1M5 15h1m2 0h3m11 0h3m4 0h1M0 17h1m2 0h2m28 0h1M1 18h1m2 0h8m11 0h7m1 0h2"/>
  <path stroke="#a3a3a3" d="M2 1h1m28 0h1M3 2h1m26 0h1m0 1h1M1 4h1m30 9h1M1 14h2m28 0h2M2 15h1m27 0h2M3 16h1m26 0h1"/>
  <path stroke="#b8b8b8" d="M3 1h5M2 2h1M1 3h1M1 5h1M1 6h1M1 7h1m6 9h17"/>
  <path stroke="#ccc" d="M8 1h19m2 0h2m0 1h1m0 1h1M1 8h1M1 9h1m30 1h1M1 11h1m30 0h1m-1 1h1M1 13h1m1 2h1m0 1h1m2 0h1m17 0h2m1 0h2"/>
  <path stroke="#e0e0e0" d="M27 1h2m3 4h1m-1 3h1m-1 1h1M1 10h1m3 6h2m20 0h1"/>
  <path stroke="#383838" d="M0 2h1M0 3h1M0 4h1M0 5h1M0 6h1M0 7h1M0 8h1M0 9h1m-1 1h1m-1 1h1m-1 1h1m-1 1h1m-1 1h1m-1 1h1m32 0h1M0 16h2m30 0h2M1 17h2m28 0h2M2 18h2m26 0h1"/>
  <path stroke="#666" d="M1 2h1m15 0h5m4 0h1M2 5h1M2 7h1M2 8h1M2 9h1m-1 3h1m28 1h1M1 15h1m2 0h1m1 0h2m3 0h11m3 0h4m3 0h1M2 16h1m28 0h1M5 17h2m21 0h3m-19 1h11"/>
  <path stroke="#7a7a7a" d="M5 2h2m22 0h1m2 0h1M2 3h1m28 1h1M2 6h1m4 11h21"/>

    <!-- bakcground highlight replace with one shade darker? : b4a9c7-->
  <path stroke="#bfb5cf" d="M4 3h2m22 0h2M3 12h1m-1 1h1m0 1h2"/>
  <!-- bakcground medium -->
  <path stroke="#aa9cbf" d="M6 3h22M3 4h2m24 0h2M3 5h1m26 0h1M3 6h1m26 0h1m-1 6h1M4 13h1m24 0h2M6 14h24"/>
  <!-- background darker shadow -->
  <path stroke="#756194" d="M5 4h2m20 0h2M4 5h1m24 0h1M4 6h1m24 0h1"/>
  <!--background shadow-->
  <path stroke="#7f6b9e" d="M7 4h20"/>
  
  <path stroke="#f5f5f5" d="M32 4h1M1 12h1"/>
  <!-- background main-->
  <path stroke="#9584ae" d="M5 5h24M5 6h24M3 7h28M3 8h28M3 9h28M3 10h28M3 11h28M4 12h26M5 13h24"/>
  <path stroke="#fff" d="M32 6h1m-1 1h1"/>
</svg>

<svg xmlns="http://www.w3.org/2000/svg" viewBox="0 -0.5 34 19" shape-rendering="crispEdges" preserveAspectRatio="none">
<metadata>Made with Pixels to Svg https://codepen.io/shshaw/pen/XbxvNj</metadata>
<path stroke="#525252" d="M2 0h1M4 0h28M1 1h1M32 1h1M4 2h1M7 2h10M22 2h4M27 2h2M33 2h1M3 3h1M30 3h1M33 3h1M2 4h1M33 4h1M31 5h1M33 5h1M31 6h1M33 6h1M31 7h1M33 7h1M31 8h1M33 8h1M31 9h1M33 9h1M2 10h1M31 10h1M33 10h1M2 11h1M31 11h1M33 11h1M31 12h1M33 12h1M2 13h1M33 13h1M3 14h1M30 14h1M33 14h1M5 15h1M8 15h3M22 15h3M29 15h1M0 17h1M3 17h2M33 17h1M1 18h1M4 18h8M23 18h7M31 18h2" />
<path stroke="#383838" d="M3 0h1M0 2h1M0 3h1M0 4h1M0 5h1M0 6h1M0 7h1M0 8h1M0 9h1M0 10h1M0 11h1M0 12h1M0 13h1M0 14h1M0 15h1M33 15h1M0 16h2M32 16h2M1 17h2M31 17h2M2 18h2M30 18h1" />
<path stroke="#a3a3a3" d="M2 1h1M31 1h1M3 2h1M30 2h1M31 3h1M1 4h1M32 13h1M1 14h2M32 14h1M2 15h1M31 15h1M3 16h1M30 16h1" />
<path stroke="#cccccc" d="M3 1h1M5 1h3M17 1h3M24 1h3M29 1h2M2 2h1M31 2h1M1 3h1M32 3h1M1 8h1M1 9h1M32 10h1M1 11h1M32 11h1M32 12h1M1 13h1M3 15h1M4 16h1M7 16h1M25 16h2M28 16h2" />
<path stroke="#e0e0e0" d="M4 1h1M27 1h2M32 5h1M32 8h1M32 9h1M1 10h1M30 15h1M5 16h2M27 16h1" />
<path stroke="#b8b8b8" d="M8 1h9M20 1h4M1 5h1M1 6h1M1 7h1M31 14h1M8 16h17" />
<path stroke="#666666" d="M1 2h1M17 2h5M26 2h1M2 5h1M2 7h1M2 8h1M2 9h1M2 12h1M31 13h1M1 15h1M4 15h1M6 15h2M11 15h11M25 15h4M32 15h1M2 16h1M31 16h1M5 17h2M28 17h3M12 18h11" />
<path stroke="#7a7a7a" d="M5 2h2M29 2h1M32 2h1M2 3h1M31 4h1M2 6h1M7 17h21" />
<path stroke="#fbb7ae" d="M4 3h2M28 3h2M3 12h1M3 13h1M4 14h2" />
<path stroke="#eb9993" d="M6 3h22M3 4h2M29 4h2M3 5h1M30 5h1M3 6h1M30 6h1M30 12h1M4 13h1M29 13h2M6 14h24" />
<path stroke="#ba6a67" d="M5 4h2M27 4h2M4 5h1M29 5h1M4 6h1M29 6h1" />
<path stroke="#bd7674" d="M7 4h20" />
<path stroke="#f5f5f5" d="M32 4h1M1 12h1" />
<!-- background-->
<path stroke="#c0a5c5" d="M5 5h24M5 6h24M3 7h28M3 8h28M3 9h28M3 10h28M3 11h28M4 12h26M5 13h24" />
<path stroke="#ffffff" d="M32 6h1M32 7h1" />
</svg>
